X:127
T: Die Schlangenkoechin
N: Q0079R
O: Mitteleuropa, Deutschland (BRD) , Niedersachsen
N: Zweite und vierte Zeile = Refrain.
R: Ballade, Mord; Reigen - Tanz, antiphonal
M: 3/4
L: 1/8
K: G
DD | G2G2Ac | B2G2
B2 | A3GFA | G2z2
D2 | G2G2Ac | BAG2
B2 | A3GF2 | G2z2

@@@ Tune index: 1182
